X: 6237
T: Carnie's Canter
R: reel
M: 4/4
K: Fmajor
|:Ac c/c/c dc=Bc|Ac=Bc fc_BA|Bd d/d/d ed^cd|Bd^cd ed=cB|
Ac c/c/c dc=Bc|Ac=Bc fc_BA|BABd g^fga|bagf edcB:|
|:Af f/f/f cfAf|afef cfAf|Bg g/g/g dgBg|bagf edcB|
Af f/f/f cfAf|afef cfAf|bgaf gefd|cBAG F4:|

